deepin/status/network-mobile-3g-offline-symbolic.svg

<?xml version="1.0" encoding="UTF-8" standalone="no"?>
<svg width="16px" height="16px" viewBox="0 0 16 16" version="1.1" xmlns="http://www.w3.org/2000/svg" xmlns:xlink="http://www.w3.org/1999/xlink">
    <!-- Generator: Sketch 39.1 (31720) - http://www.bohemiancoding.com/sketch -->
    <title>network-mobile-3g-off</title>
    <desc>Created with Sketch.</desc>
    <defs></defs>
    <g id="Page-1" stroke="none" stroke-width="1" fill="none" fill-rule="evenodd">
        <g id="network-mobile-3g-off">
            <g id="Group-22">
                <polygon id="Fill-21" points="0 16 16 16 16 0 0 0"></polygon>
                <path d="M6.999,5.9668 C6.999,4.3288 5.667,2.9958 3.969,2.9958 C2.331,2.9958 0.999,4.3288 0.999,5.9668 C0.999,6.2428 1.223,6.4668 1.499,6.4668 C1.775,6.4668 1.999,6.2428 1.999,5.9668 C1.999,4.8798 2.883,3.9958 4.029,3.9958 C5.115,3.9958 5.999,4.8798 5.999,6.0268 C5.999,7.1128 5.115,7.9958 4.029,7.9958 C3.753,7.9958 3.529,8.2198 3.529,8.4958 C3.529,8.7728 3.753,8.9958 4.029,8.9958 C5.115,8.9958 5.999,9.8798 5.999,11.0268 C5.999,12.1128 5.115,12.9958 3.969,12.9958 C2.883,12.9958 1.999,12.1128 1.999,11.0268 C1.999,10.7498 1.775,10.5268 1.499,10.5268 C1.223,10.5268 0.999,10.7498 0.999,11.0268 C0.999,12.6638 2.331,13.9958 4.029,13.9958 C5.667,13.9958 6.999,12.6638 6.999,10.9668 C6.999,9.9368 6.473,9.0278 5.675,8.4948 C6.473,7.9558 6.999,7.0338 6.999,5.9668" id="Fill-23" fill="#FFFFFF" opacity="0.3"></path>
                <path d="M14.499,7.9961 L11.499,7.9961 C11.223,7.9961 10.999,8.2201 10.999,8.4961 C10.999,8.7721 11.223,8.9961 11.499,8.9961 L13.999,8.9961 L13.999,10.6121 C13.999,11.2501 13.751,11.8491 13.301,12.2991 C12.852,12.7481 12.253,12.9961 11.615,12.9961 L11.383,12.9961 C10.745,12.9961 10.146,12.7481 9.697,12.2991 C9.247,11.8481 8.999,11.2491 8.999,10.6121 L8.999,6.3801 C8.999,5.7441 9.247,5.1451 9.697,4.6941 C10.147,4.2441 10.746,3.9961 11.383,3.9961 L11.615,3.9961 C12.252,3.9961 12.851,4.2441 13.301,4.6941 C13.751,5.1441 13.999,5.7431 13.999,6.3801 C13.999,6.6561 14.223,6.8801 14.499,6.8801 C14.775,6.8801 14.999,6.6561 14.999,6.3801 C14.999,5.4761 14.647,4.6261 14.008,3.9871 C13.369,3.3481 12.519,2.9961 11.615,2.9961 L11.383,2.9961 C10.479,2.9961 9.629,3.3481 8.99,3.9871 C8.351,4.6281 7.999,5.4771 7.999,6.3801 L7.999,10.6121 C7.999,11.5161 8.351,12.3651 8.99,13.0061 C9.629,13.6441 10.478,13.9961 11.383,13.9961 L11.615,13.9961 C12.516,13.9961 13.361,13.6471 13.999,13.0131 L13.999,13.4961 C13.999,13.7721 14.223,13.9961 14.499,13.9961 C14.775,13.9961 14.999,13.7721 14.999,13.4961 L14.999,10.6121 L14.999,8.4961 C14.999,8.2201 14.775,7.9961 14.499,7.9961" id="Fill-25" fill="#FFFFFF" opacity="0.3"></path>
            </g>
        </g>
    </g>
</svg>

<?xml version="1.0" encoding="iso-8859-1"?>
<!-- Generator: Adobe Illustrator 18.0.0, SVG Export Plug-In . SVG Version: 6.00 Build 0)  -->
<!DOCTYPE svg PUBLIC "-//W3C//DTD SVG 1.1//EN" "http://www.w3.org/Graphics/SVG/1.1/DTD/svg11.dtd">
<svg version="1.1" id="&#x56FE;&#x5C42;_1" xmlns="http://www.w3.org/2000/svg" xmlns:xlink="http://www.w3.org/1999/xlink" x="0px"
	 y="0px" viewBox="0 0 16 16" style="enable-background:new 0 0 16 16;" xml:space="preserve">
<g style="opacity:0.3;">
	<path style="fill:#FFFFFF;" d="M6.99,6.073c0-1.638-1.333-2.97-3.03-2.97c-1.638,0-2.97,1.332-2.97,2.97c0,0.276,0.224,0.5,0.5,0.5
		s0.5-0.224,0.5-0.5c0-1.086,0.884-1.97,2.03-1.97c1.086,0,1.97,0.884,1.97,2.03c0,1.086-0.884,1.97-1.97,1.97
		c-0.276,0-0.5,0.224-0.5,0.5s0.224,0.5,0.5,0.5c1.086,0,1.97,0.884,1.97,2.03c0,1.086-0.884,1.97-2.03,1.97
		c-1.086,0-1.97-0.884-1.97-1.97c0-0.276-0.224-0.5-0.5-0.5s-0.5,0.224-0.5,0.5c0,1.638,1.332,2.97,3.03,2.97
		c1.638,0,2.97-1.332,2.97-3.03c0-1.029-0.527-1.938-1.325-2.472C6.463,8.063,6.99,7.14,6.99,6.073z"/>
	<path style="fill:#FFFFFF;" d="M14.49,8.103h-3c-0.276,0-0.5,0.224-0.5,0.5s0.224,0.5,0.5,0.5h2.5v1.616
		c0,0.637-0.248,1.235-0.698,1.686s-1.048,0.698-1.686,0.698h-0.232c-0.637,0-1.236-0.248-1.686-0.698
		c-0.45-0.45-0.698-1.049-0.698-1.686V6.487c0-0.637,0.248-1.235,0.698-1.686c0.451-0.45,1.049-0.698,1.686-0.698h0.232
		c0.636,0,1.235,0.248,1.686,0.698c0.45,0.45,0.698,1.049,0.698,1.686c0,0.276,0.224,0.5,0.5,0.5s0.5-0.224,0.5-0.5
		c0-0.904-0.352-1.754-0.991-2.393c-0.64-0.64-1.489-0.991-2.393-0.991h-0.232c-0.903,0-1.753,0.352-2.393,0.991
		C8.342,4.733,7.99,5.582,7.99,6.487v4.232c0,0.904,0.352,1.754,0.991,2.393s1.488,0.991,2.393,0.991h0.232
		c0.9,0,1.746-0.35,2.384-0.984v0.484c0,0.276,0.224,0.5,0.5,0.5s0.5-0.224,0.5-0.5v-2.884V8.603
		C14.99,8.326,14.767,8.103,14.49,8.103z"/>
</g>
</svg>
